other/simplekeyboard.svg

<?xml version="1.0" encoding="UTF-8" standalone="no"?>
<svg width="48" height="48" viewBox="0 0 48 48" version="1.1" >
    <defs>
        <style>.cls-1{fill:#fff;}</style>
    </defs>
    <path
        class="cls-1"
        d="M 7 9 C 5.892 9 5 9.892 5 11 L 5 41 C 5 42.108 5.892 43 7 43 L 41 43 C 42.108 43 43 42.108 43 41 L 43 11 C 43 9.892 42.108 9 41 9 L 7 9 z M 10.617188 14.654297 L 13.628906 14.654297 C 14.068876 14.654297 14.423828 15.083196 14.423828 15.615234 L 14.423828 18.294922 C 14.423828 18.82696 14.068876 19.255859 13.628906 19.255859 L 10.617188 19.255859 C 10.177218 19.255859 9.8222656 18.82696 9.8222656 18.294922 L 9.8222656 15.615234 C 9.8222656 15.083196 10.177218 14.654297 10.617188 14.654297 z M 17.216797 14.654297 L 20.228516 14.654297 C 20.668485 14.654297 21.023438 15.083196 21.023438 15.615234 L 21.023438 18.294922 C 21.023438 18.82696 20.668485 19.255859 20.228516 19.255859 L 17.216797 19.255859 C 16.776827 19.255859 16.423828 18.82696 16.423828 18.294922 L 16.423828 15.615234 C 16.423828 15.083196 16.776827 14.654297 17.216797 14.654297 z M 27.816406 14.767578 L 30.828125 14.767578 C 31.268095 14.767578 31.623047 15.196478 31.623047 15.728516 L 31.623047 18.40625 C 31.623047 18.938288 31.268095 19.367188 30.828125 19.367188 L 27.816406 19.367188 C 27.376437 19.367188 27.023438 18.938288 27.023438 18.40625 L 27.023438 15.728516 C 27.023438 15.196478 27.376437 14.767578 27.816406 14.767578 z M 34.417969 14.767578 L 37.429688 14.767578 C 37.869657 14.767578 38.222656 15.196478 38.222656 15.728516 L 38.222656 18.40625 C 38.222656 18.938288 37.869657 19.367188 37.429688 19.367188 L 34.417969 19.367188 C 33.977999 19.367188 33.623047 18.938288 33.623047 18.40625 L 33.623047 15.728516 C 33.623047 15.196478 33.977999 14.767578 34.417969 14.767578 z M 11.59375 20.716797 L 14.605469 20.716797 C 15.045438 20.716797 15.400391 21.145696 15.400391 21.677734 L 15.400391 24.357422 C 15.400391 24.88946 15.045438 25.316406 14.605469 25.316406 L 11.59375 25.316406 C 11.15378 25.316406 10.800781 24.88946 10.800781 24.357422 L 10.800781 21.677734 C 10.800781 21.145696 11.15378 20.716797 11.59375 20.716797 z M 18.195312 20.716797 L 21.205078 20.716797 C 21.645048 20.716797 22 21.145696 22 21.677734 L 22 24.357422 C 22 24.88946 21.645048 25.316406 21.205078 25.316406 L 18.195312 25.316406 C 17.755343 25.316406 17.400391 24.88946 17.400391 24.357422 L 17.400391 21.677734 C 17.400391 21.145696 17.755343 20.716797 18.195312 20.716797 z M 26.794922 20.716797 L 29.806641 20.716797 C 30.24661 20.716797 30.599609 21.145696 30.599609 21.677734 L 30.599609 24.357422 C 30.599609 24.88946 30.24661 25.316406 29.806641 25.316406 L 26.794922 25.316406 C 26.354952 25.316406 26 24.88946 26 24.357422 L 26 21.677734 C 26 21.145696 26.354952 20.716797 26.794922 20.716797 z M 33.394531 20.716797 L 36.40625 20.716797 C 36.84622 20.716797 37.201172 21.145696 37.201172 21.677734 L 37.201172 24.357422 C 37.201172 24.88946 36.84622 25.316406 36.40625 25.316406 L 33.394531 25.316406 C 32.954562 25.316406 32.599609 24.88946 32.599609 24.357422 L 32.599609 21.677734 C 32.599609 21.145696 32.954562 20.716797 33.394531 20.716797 z M 12.59375 27.171875 L 15.605469 27.171875 C 16.045438 27.171875 16.400391 27.600775 16.400391 28.132812 L 16.400391 30.810547 C 16.400391 31.342585 16.045438 31.771484 15.605469 31.771484 L 12.59375 31.771484 C 12.15378 31.771484 11.800781 31.342585 11.800781 30.810547 L 11.800781 28.132812 C 11.800781 27.600775 12.15378 27.171875 12.59375 27.171875 z M 19.193359 27.171875 L 22.205078 27.171875 C 22.645048 27.171875 23 27.600775 23 28.132812 L 23 30.810547 C 23 31.342585 22.645048 31.771484 22.205078 31.771484 L 19.193359 31.771484 C 18.75339 31.771484 18.400391 31.342585 18.400391 30.810547 L 18.400391 28.132812 C 18.400391 27.600775 18.75339 27.171875 19.193359 27.171875 z M 25.794922 27.171875 L 28.806641 27.171875 C 29.24661 27.171875 29.599609 27.600775 29.599609 28.132812 L 29.599609 30.810547 C 29.599609 31.342585 29.24661 31.771484 28.806641 31.771484 L 25.794922 31.771484 C 25.354952 31.771484 25 31.342585 25 30.810547 L 25 28.132812 C 25 27.600775 25.354952 27.171875 25.794922 27.171875 z M 32.394531 27.171875 L 35.40625 27.171875 C 35.84622 27.171875 36.199219 27.600775 36.199219 28.132812 L 36.199219 30.810547 C 36.199219 31.342585 35.84622 31.771484 35.40625 31.771484 L 32.394531 31.771484 C 31.954562 31.771484 31.599609 31.342585 31.599609 30.810547 L 31.599609 28.132812 C 31.599609 27.600775 31.954562 27.171875 32.394531 27.171875 z M 12.570312 34.498047 L 35.429688 34.498047 C 35.856007 34.498047 36.199219 34.940903 36.199219 35.490234 L 36.199219 38.107422 C 36.199219 38.656753 35.856007 39.099609 35.429688 39.099609 L 12.570312 39.099609 C 12.143993 39.099609 11.800781 38.656753 11.800781 38.107422 L 11.800781 35.490234 C 11.800781 34.940903 12.143993 34.498047 12.570312 34.498047 z "
        id="rect8431" />
</svg>

<?xml version="1.0" encoding="UTF-8"?>
<svg version="1.1" viewBox="0 0 48 48" xmlns="http://www.w3.org/2000/svg">
    <defs>
        <style>.cls-1{fill:#fff;}</style>
    </defs>
    <path class="cls-1" d="m7 9c-1.108 0-2 0.892-2 2v30c0 1.108 0.892 2 2 2h34c1.108 0 2-0.892 2-2v-30c0-1.108-0.892-2-2-2h-34zm3.6172 5.6543h3.0117c0.43997 0 0.79492 0.4289 0.79492 0.96094v2.6797c0 0.53204-0.35495 0.96094-0.79492 0.96094h-3.0117c-0.43997 0-0.79492-0.4289-0.79492-0.96094v-2.6797c0-0.53204 0.35495-0.96094 0.79492-0.96094zm6.5996 0h3.0117c0.43997 0 0.79492 0.4289 0.79492 0.96094v2.6797c0 0.53204-0.35495 0.96094-0.79492 0.96094h-3.0117c-0.43997 0-0.79297-0.4289-0.79297-0.96094v-2.6797c0-0.53204 0.353-0.96094 0.79297-0.96094zm10.6 0.11328h3.0117c0.43997 0 0.79492 0.4289 0.79492 0.96094v2.6777c0 0.53204-0.35495 0.96094-0.79492 0.96094h-3.0117c-0.43997 0-0.79297-0.4289-0.79297-0.96094v-2.6777c0-0.53204 0.353-0.96094 0.79297-0.96094zm6.6016 0h3.0117c0.43997 0 0.79297 0.4289 0.79297 0.96094v2.6777c0 0.53204-0.353 0.96094-0.79297 0.96094h-3.0117c-0.43997 0-0.79492-0.4289-0.79492-0.96094v-2.6777c0-0.53204 0.35495-0.96094 0.79492-0.96094zm-22.824 5.9492h3.0117c0.43997 0 0.79492 0.4289 0.79492 0.96094v2.6797c0 0.53204-0.35495 0.95898-0.79492 0.95898h-3.0117c-0.43997 0-0.79297-0.42695-0.79297-0.95898v-2.6797c0-0.53204 0.353-0.96094 0.79297-0.96094zm6.6016 0h3.0098c0.43997 0 0.79492 0.4289 0.79492 0.96094v2.6797c0 0.53204-0.35495 0.95898-0.79492 0.95898h-3.0098c-0.43997 0-0.79492-0.42695-0.79492-0.95898v-2.6797c0-0.53204 0.35495-0.96094 0.79492-0.96094zm8.5996 0h3.0117c0.43997 0 0.79297 0.4289 0.79297 0.96094v2.6797c0 0.53204-0.353 0.95898-0.79297 0.95898h-3.0117c-0.43997 0-0.79492-0.42695-0.79492-0.95898v-2.6797c0-0.53204 0.35495-0.96094 0.79492-0.96094zm6.5996 0h3.0117c0.43997 0 0.79492 0.4289 0.79492 0.96094v2.6797c0 0.53204-0.35495 0.95898-0.79492 0.95898h-3.0117c-0.43997 0-0.79492-0.42695-0.79492-0.95898v-2.6797c0-0.53204 0.35495-0.96094 0.79492-0.96094zm-20.801 6.4551h3.0117c0.43997 0 0.79492 0.4289 0.79492 0.96094v2.6777c0 0.53204-0.35495 0.96094-0.79492 0.96094h-3.0117c-0.43997 0-0.79297-0.4289-0.79297-0.96094v-2.6777c0-0.53204 0.353-0.96094 0.79297-0.96094zm6.5996 0h3.0117c0.43997 0 0.79492 0.4289 0.79492 0.96094v2.6777c0 0.53204-0.35495 0.96094-0.79492 0.96094h-3.0117c-0.43997 0-0.79297-0.4289-0.79297-0.96094v-2.6777c0-0.53204 0.353-0.96094 0.79297-0.96094zm6.6016 0h3.0117c0.43997 0 0.79297 0.4289 0.79297 0.96094v2.6777c0 0.53204-0.353 0.96094-0.79297 0.96094h-3.0117c-0.43997 0-0.79492-0.4289-0.79492-0.96094v-2.6777c0-0.53204 0.35495-0.96094 0.79492-0.96094zm6.5996 0h3.0117c0.43997 0 0.79297 0.4289 0.79297 0.96094v2.6777c0 0.53204-0.353 0.96094-0.79297 0.96094h-3.0117c-0.43997 0-0.79492-0.4289-0.79492-0.96094v-2.6777c0-0.53204 0.35495-0.96094 0.79492-0.96094zm-19.824 7.3262h22.859c0.42632 0 0.76953 0.44286 0.76953 0.99219v2.6172c0 0.54933-0.34321 0.99219-0.76953 0.99219h-22.859c-0.42632 0-0.76953-0.44286-0.76953-0.99219v-2.6172c0-0.54933 0.34321-0.99219 0.76953-0.99219z"/>
</svg>
